X:29
T:So grn als ist die Heiden...
B:Frau Nachtigall (Straburg - 1928)
Z:<anamnese@laposte.net> -- http://anamnese.fr.st
N:p.76
M:3/4
L:1/8
Q:1/4=130
K:A
E | A3 E (3CEA | A2G2 zE | E G B2 e2 | c2 A2 z |: E |
A c e2 e2 | d c B2 z d | c A G2 B2 | B2 A2 Z:|
W:
